!!!Genre:	Freylekhs
!!!Mode:	Freygish
!!!Listening/dance:	listening
!!!:	*C:; *c:
!!!One_Mode:	no
!!!Orig_tonic: C
**kern
*I"P1
*clefG2
*k[b-e-a-]
*G:frey
*M2/4
*>A
=1
8gL
8ggJ
8bnL
8ccJ
=2
8ddL
16ddL
16ddJJ
8ddL
8ddJ
=3
8gL
8ggJ
8gL
8a-J
=4
8.bntL
16a-Jk
4g
=5
(16bnLL
16ddJ
8ccJ)
(16ccLL
16ddJ
8bJ)
=6
(16bnLL
16ddJ
8ccJ)
(16ccLL
16ddJ
8bJ)
=7
8ffL
8ee-
8dd
8ccJ
=8
16bnLL
16cc
16b
16ccJJ
4dd
=9:|!
(16bnLL
16cc)
(16a-
16bJJ)
4g
*>bM
*G:frey
=18:|!
*>C
16bnLL
16ccJ
8ddJ
16ee-LL
16ddJ
8ccJ
=19
16ddLL
16ee-J
8ffJ
16ee-LL
16ddJ
8ccJ
=20
16bnLL
16ccJ
8ddJ
16ccLL
16bJ
8a-J
=21
16gLL
16a-J
8bnJ
16a-LL
16gJ
8fJ
=22
12bn'L
12cc'
12dd'J
12ee-'L
12dd'
12cc'J
=23
12dd'L
12ee-'
12ff'J
12ee-'L
12dd'
12cc'J
=24
12bn'L
12cc'
12dd'J
12cc'L
12b'
12a-'J
=25
2g
*>bM
*-
